dist/images/logo.svg

<svg width="172" height="69" viewBox="0 0 172 69" fill="none" xmlns="http://www.w3.org/2000/svg">
<g clip-path="url(#clip0_12_352)">
<path d="M36.7829 15.3143V7.65842C36.7829 6.81284 36.0971 6.12726 35.251 6.12726H33.719V1.53375C33.719 0.68816 33.0332 0.0025787 32.187 0.0025787C30.0182 0.0025787 26.6967 -0.163553 22.7976 2.1711C20.3739 1.45001 18.6597 1.53375 16.8674 1.53375C16.0213 1.53375 15.3354 2.21933 15.3354 3.06492V6.12726H13.8035C12.9573 6.12726 12.2715 6.81284 12.2715 7.65842V15.3143C12.2715 21.5501 16.9579 26.7123 22.9952 27.4681V47.4688C22.9952 48.3144 23.6811 49 24.5272 49C25.3733 49 26.0592 48.3144 26.0592 47.4688V42.1097H28.3571C33.0031 42.1097 36.7829 38.3319 36.7829 33.6883V31.3915C36.7829 30.546 36.0971 29.8604 35.251 29.8604H31.4211C29.3859 29.8604 27.517 30.5853 26.0592 31.7903V27.4674C32.0876 26.7212 36.7829 21.5847 36.7829 15.3143V15.3143ZM33.719 15.3143C33.719 18.0393 32.5133 20.5004 30.6076 22.1879C30.6377 21.9422 30.6551 21.6926 30.6551 21.4389C30.6551 17.5614 29.2047 14.0165 26.8187 11.3159C28.8415 9.93633 31.2399 9.18959 33.719 9.18959V15.3143ZM30.6551 3.06492V6.43617C30.372 6.49378 30.0908 6.55952 29.812 6.63292C28.8182 5.52101 27.6847 4.57369 26.4472 3.8082C27.7848 3.31938 29.2049 3.06492 30.6551 3.06492V3.06492ZM18.3994 4.59609C21.4429 4.59609 24.3985 5.70685 26.6972 7.82915C25.9385 8.22046 25.2111 8.67665 24.5227 9.1939C22.7415 7.85547 20.6602 6.89562 18.3994 6.43512V4.59609ZM15.3354 15.3143V9.18959C22.0932 9.18959 27.5911 14.6846 27.5911 21.4389C27.5911 23.15 26.1774 24.5443 24.4467 24.4998C19.0647 24.367 15.3354 20.0933 15.3354 15.3143ZM31.4211 32.9227H33.719V33.6883C33.719 36.6433 31.3137 39.0474 28.3571 39.0474H26.0592V38.2818C26.0592 35.3268 28.4646 32.9227 31.4211 32.9227Z" fill="white"/>
</g>
<path d="M54.8882 22.7814H48.4301V26.8411H56.0582V30H44.3236V12.9655H56.0816V16.1361H48.4301V19.7278H54.8882V22.7814ZM64.3993 18.6281L67.1838 12.9655H71.8753L67.1136 21.4126L72.004 30H67.2657L64.3993 24.2321L61.5329 30H56.8063L61.685 21.4126L56.935 12.9655H61.6148L64.3993 18.6281ZM77.7712 24.2204V30H73.6647V12.9655H80.4621C81.7647 12.9655 82.9151 13.2073 83.9135 13.6909C84.9196 14.1667 85.6957 14.8491 86.2417 15.7383C86.7954 16.6197 87.0723 17.6219 87.0723 18.7451C87.0723 20.4064 86.4757 21.7362 85.2823 22.7346C84.0968 23.7252 82.4666 24.2204 80.3919 24.2204H77.7712ZM77.7712 21.0499H80.4621C81.2577 21.0499 81.8622 20.851 82.2755 20.4532C82.6967 20.0554 82.9073 19.4938 82.9073 18.7685C82.9073 17.9729 82.6928 17.3372 82.2638 16.8615C81.8349 16.3857 81.2499 16.1439 80.5089 16.1361H77.7712V21.0499ZM93.6936 26.8411H100.842V30H89.5871V12.9655H93.6936V26.8411ZM116.566 21.8337C116.566 23.4951 116.257 24.9653 115.641 26.2445C115.025 27.5236 114.148 28.5103 113.009 29.2044C111.878 29.8908 110.587 30.234 109.136 30.234C107.686 30.234 106.399 29.9025 105.276 29.2395C104.152 28.5688 103.275 27.6133 102.643 26.3732C102.019 25.133 101.692 23.7096 101.66 22.1028V21.1435C101.66 19.4743 101.965 18.0041 102.573 16.7328C103.189 15.4536 104.067 14.467 105.205 13.7728C106.352 13.0786 107.654 12.7315 109.113 12.7315C110.556 12.7315 111.843 13.0747 112.974 13.7611C114.105 14.4475 114.982 15.4263 115.606 16.6977C116.238 17.9612 116.558 19.4119 116.566 21.0499V21.8337ZM112.389 21.1201C112.389 19.4275 112.104 18.1445 111.535 17.2709C110.973 16.3896 110.166 15.9489 109.113 15.9489C107.054 15.9489 105.966 17.4932 105.849 20.5819L105.837 21.8337C105.837 23.5029 106.114 24.7859 106.668 25.6829C107.222 26.5798 108.044 27.0283 109.136 27.0283C110.174 27.0283 110.973 26.5876 111.535 25.7063C112.096 24.8249 112.381 23.5575 112.389 21.9039V21.1201ZM125.328 23.9865H123.105V30H118.998V12.9655H125.702C127.722 12.9655 129.302 13.414 130.441 14.311C131.579 15.2079 132.149 16.4754 132.149 18.1133C132.149 19.2989 131.907 20.2816 131.423 21.0616C130.948 21.8415 130.199 22.4733 129.177 22.9569L132.734 29.8245V30H128.335L125.328 23.9865ZM123.105 20.8159H125.702C126.482 20.8159 127.067 20.6131 127.457 20.2075C127.855 19.7941 128.054 19.2209 128.054 18.4877C128.054 17.7545 127.855 17.1812 127.457 16.7679C127.059 16.3467 126.474 16.1361 125.702 16.1361H123.105V20.8159ZM145.509 22.7814H139.051V26.8411H146.679V30H134.944V12.9655H146.702V16.1361H139.051V19.7278H145.509V22.7814ZM48.6992 49H44.6044V31.9655H48.6992V49ZM66.0957 49H62.0126L55.9757 38.4002V49H51.8691V31.9655H55.9757L62.0009 42.5653V31.9655H66.0957V49ZM69.0083 49V31.9655H74.4954C76.0007 31.9655 77.3539 32.3087 78.5551 32.9951C79.7562 33.6736 80.6922 34.6369 81.363 35.8849C82.0415 37.125 82.3847 38.5172 82.3925 40.0616V40.8454C82.3925 42.4054 82.061 43.8054 81.3981 45.0456C80.7429 46.2779 79.8147 47.2451 78.6136 47.947C77.4202 48.6412 76.0865 48.9922 74.6124 49H69.0083ZM73.1148 35.1361V45.8411H74.5422C75.7199 45.8411 76.6247 45.4239 77.2564 44.5893C77.8882 43.7469 78.2041 42.499 78.2041 40.8454V40.1084C78.2041 38.4626 77.8882 37.2225 77.2564 36.3879C76.6247 35.5534 75.7043 35.1361 74.4954 35.1361H73.1148ZM99.2392 40.8337C99.2392 42.4951 98.9311 43.9653 98.3149 45.2445C97.6988 46.5236 96.8213 47.5103 95.6826 48.2044C94.5516 48.8908 93.2608 49.234 91.81 49.234C90.3593 49.234 89.0723 48.9025 87.9492 48.2395C86.826 47.5688 85.9486 46.6133 85.3168 45.3732C84.6928 44.133 84.3652 42.7096 84.334 41.1028V40.1435C84.334 38.4743 84.6382 37.0041 85.2466 35.7328C85.8628 34.4536 86.7402 33.467 87.879 32.7728C89.0255 32.0786 90.3281 31.7315 91.7866 31.7315C93.2296 31.7315 94.5165 32.0747 95.6475 32.7611C96.7784 33.4475 97.6559 34.4263 98.2798 35.6977C98.9116 36.9612 99.2314 38.4119 99.2392 40.0499V40.8337ZM95.0625 40.1201C95.0625 38.4275 94.7778 37.1445 94.2084 36.2709C93.6468 35.3896 92.8396 34.9489 91.7866 34.9489C89.7275 34.9489 88.6395 36.4932 88.5225 39.5819L88.5108 40.8337C88.5108 42.5029 88.7876 43.7859 89.3414 44.6829C89.8952 45.5798 90.7181 46.0283 91.81 46.0283C92.8474 46.0283 93.6468 45.5876 94.2084 44.7063C94.77 43.8249 95.0547 42.5575 95.0625 40.9039V40.1201ZM115.899 49H111.816L105.779 38.4002V49H101.672V31.9655H105.779L111.804 42.5653V31.9655H115.899V49ZM129.376 41.7814H122.918V45.8411H130.546V49H118.811V31.9655H130.569V35.1361H122.918V38.7278H129.376V41.7814ZM141.32 44.4723C141.32 43.8717 141.106 43.4037 140.677 43.0683C140.256 42.733 139.511 42.3859 138.442 42.0271C137.374 41.6683 136.5 41.3212 135.822 40.9858C133.614 39.9017 132.511 38.4119 132.511 36.5166C132.511 35.5729 132.784 34.7422 133.33 34.0246C133.883 33.2993 134.663 32.7377 135.67 32.3399C136.676 31.9343 137.807 31.7315 139.062 31.7315C140.287 31.7315 141.383 31.9499 142.35 32.3867C143.325 32.8235 144.082 33.4475 144.62 34.2586C145.158 35.062 145.427 35.9823 145.427 37.0197H141.332C141.332 36.3255 141.118 35.7874 140.689 35.4052C140.268 35.023 139.694 34.8319 138.969 34.8319C138.236 34.8319 137.655 34.9957 137.226 35.3233C136.804 35.6431 136.594 36.0525 136.594 36.5517C136.594 36.9885 136.828 37.3863 137.296 37.7451C137.764 38.0961 138.587 38.4626 139.764 38.8448C140.942 39.2192 141.909 39.6248 142.666 40.0616C144.507 41.1223 145.427 42.5848 145.427 44.4489C145.427 45.9386 144.865 47.1086 143.742 47.9587C142.619 48.8089 141.079 49.234 139.121 49.234C137.74 49.234 136.489 48.9883 135.365 48.4969C134.25 47.9977 133.408 47.3192 132.838 46.4612C132.277 45.5954 131.996 44.601 131.996 43.4778H136.114C136.114 44.3904 136.348 45.0651 136.816 45.5018C137.292 45.9308 138.06 46.1453 139.121 46.1453C139.8 46.1453 140.334 46.001 140.724 45.7124C141.122 45.4161 141.32 45.0027 141.32 44.4723ZM152.224 49H148.129V31.9655H152.224V49ZM165.28 45.8177H159.652L158.67 49H154.282L160.53 31.9655H164.391L170.685 49H166.274L165.28 45.8177ZM160.635 42.6472H164.297L162.46 36.7389L160.635 42.6472Z" fill="white"/>
<defs>
<clipPath id="clip0_12_352">
<rect width="49.0255" height="49" fill="white" transform="translate(0.0144043)"/>
</clipPath>
</defs>
</svg>

<svg width="172" height="69" fill="none" xmlns="http://www.w3.org/2000/svg"><g clip-path="url(#clip0_12_352)"><path d="M36.783 15.314V7.658c0-.845-.686-1.53-1.532-1.53h-1.532V1.533c0-.846-.686-1.531-1.532-1.531-2.169 0-5.49-.167-9.39 2.168-2.423-.721-4.137-.637-5.93-.637-.846 0-1.532.685-1.532 1.53v3.063h-1.532c-.846 0-1.532.686-1.532 1.531v7.656c0 6.236 4.687 11.398 10.724 12.154v20a1.532 1.532 0 003.064 0V42.11h2.298c4.646 0 8.426-3.778 8.426-8.422v-2.297c0-.845-.686-1.53-1.532-1.53h-3.83a8.39 8.39 0 00-5.362 1.93v-4.324c6.029-.746 10.724-5.882 10.724-12.153zm-3.064 0a9.173 9.173 0 01-3.111 6.874c.03-.246.047-.495.047-.75 0-3.877-1.45-7.421-3.836-10.122a12.235 12.235 0 016.9-2.126v6.124zm-3.064-12.25v3.372a15.28 15.28 0 00-.843.197 15.324 15.324 0 00-3.365-2.825 12.243 12.243 0 014.208-.743zM18.4 4.597c3.044 0 6 1.11 8.298 3.233a15.28 15.28 0 00-2.174 1.365A15.26 15.26 0 0018.4 6.436v-1.84zm-3.064 10.718V9.19c6.758 0 12.256 5.495 12.256 12.249a3.066 3.066 0 01-3.144 3.06c-5.382-.132-9.112-4.406-9.112-9.185zm16.086 17.609h2.298v.765a5.367 5.367 0 01-5.362 5.36H26.06v-.766a5.367 5.367 0 015.362-5.36z" fill="#fff"/></g><path d="M54.888 22.781H48.43v4.06h7.628V30H44.324V12.965h11.758v3.171H48.43v3.592h6.458v3.053zm9.511-4.153l2.785-5.662h4.691l-4.761 8.447L72.004 30h-4.738l-2.867-5.768L61.533 30h-4.727l4.879-8.587-4.75-8.447h4.68l2.784 5.662zm13.372 5.592V30h-4.106V12.965h6.797c1.303 0 2.453.242 3.451.726 1.007.476 1.783 1.158 2.329 2.047.553.882.83 1.884.83 3.007 0 1.661-.596 2.991-1.79 3.99-1.185.99-2.815 1.485-4.89 1.485h-2.62zm0-3.17h2.691c.796 0 1.4-.199 1.813-.597.422-.398.632-.96.632-1.684 0-.796-.214-1.432-.643-1.907-.43-.476-1.014-.718-1.755-.726H77.77v4.914zm15.923 5.791h7.148V30H89.587V12.965h4.107v13.876zm22.872-5.007c0 1.661-.309 3.131-.925 4.41-.616 1.28-1.493 2.266-2.632 2.96-1.131.687-2.422 1.03-3.873 1.03-1.45 0-2.737-.332-3.86-.995-1.124-.67-2.001-1.626-2.633-2.866-.624-1.24-.951-2.663-.983-4.27v-.96c0-1.669.305-3.139.913-4.41.616-1.28 1.494-2.266 2.632-2.96 1.147-.694 2.449-1.041 3.908-1.041 1.443 0 2.73.343 3.861 1.03 1.131.685 2.008 1.664 2.632 2.936.632 1.263.952 2.714.96 4.352v.784zm-4.177-.714c0-1.693-.285-2.976-.854-3.85-.562-.88-1.369-1.321-2.422-1.321-2.059 0-3.147 1.544-3.264 4.633l-.012 1.252c0 1.669.277 2.952.831 3.849.554.897 1.376 1.345 2.468 1.345 1.038 0 1.837-.44 2.399-1.322.561-.881.846-2.148.854-3.802v-.784zm12.939 2.866h-2.223V30h-4.107V12.965h6.704c2.02 0 3.6.449 4.739 1.346 1.138.897 1.708 2.164 1.708 3.802 0 1.186-.242 2.169-.726 2.949-.475.78-1.224 1.411-2.246 1.895l3.557 6.867V30h-4.399l-3.007-6.014zm-2.223-3.17h2.597c.78 0 1.365-.203 1.755-.608.398-.414.597-.987.597-1.72s-.199-1.307-.597-1.72c-.398-.421-.983-.632-1.755-.632h-2.597v4.68zm22.404 1.965h-6.458v4.06h7.628V30h-11.735V12.965h11.758v3.171h-7.651v3.592h6.458v3.053zM48.699 49h-4.095V31.965H48.7V49zm17.397 0h-4.083l-6.037-10.6V49h-4.107V31.965h4.107L62 42.566v-10.6h4.095V49zm2.912 0V31.965h5.487c1.506 0 2.859.344 4.06 1.03 1.201.679 2.137 1.642 2.808 2.89.678 1.24 1.022 2.632 1.03 4.177v.783c0 1.56-.332 2.96-.995 4.2a7.225 7.225 0 01-2.784 2.902c-1.194.694-2.528 1.045-4.002 1.053h-5.604zm4.107-13.864v10.705h1.427c1.178 0 2.083-.417 2.714-1.252.632-.842.948-2.09.948-3.744v-.737c0-1.645-.316-2.886-.948-3.72-.631-.835-1.552-1.252-2.76-1.252h-1.381zm26.124 5.698c0 1.661-.308 3.131-.924 4.41-.616 1.28-1.494 2.266-2.632 2.96-1.131.687-2.422 1.03-3.873 1.03-1.45 0-2.738-.331-3.86-.995-1.124-.67-2.001-1.626-2.633-2.866-.624-1.24-.952-2.663-.983-4.27v-.96c0-1.669.304-3.139.913-4.41.616-1.28 1.493-2.266 2.632-2.96 1.146-.694 2.45-1.042 3.908-1.042 1.443 0 2.73.344 3.86 1.03 1.131.686 2.009 1.665 2.633 2.937.632 1.263.951 2.714.96 4.352v.784zm-4.177-.714c0-1.692-.284-2.975-.854-3.85-.561-.88-1.368-1.321-2.421-1.321-2.06 0-3.148 1.544-3.265 4.633l-.011 1.252c0 1.669.277 2.952.83 3.849.554.897 1.377 1.345 2.469 1.345 1.037 0 1.837-.44 2.398-1.322.562-.881.847-2.149.855-3.802v-.784zM115.9 49h-4.083l-6.037-10.6V49h-4.107V31.965h4.107l6.025 10.6v-10.6h4.095V49zm13.477-7.219h-6.458v4.06h7.628V49h-11.735V31.965h11.758v3.171h-7.651v3.592h6.458v3.053zm11.944 2.691c0-.6-.214-1.068-.643-1.404-.421-.335-1.166-.682-2.235-1.04-1.068-.36-1.942-.707-2.62-1.042-2.208-1.084-3.311-2.574-3.311-4.47 0-.943.273-1.774.819-2.491.553-.726 1.333-1.287 2.34-1.685 1.006-.406 2.137-.609 3.392-.609 1.225 0 2.321.219 3.288.656.975.437 1.732 1.06 2.27 1.872.538.803.807 1.723.807 2.76h-4.095c0-.694-.214-1.232-.643-1.614-.421-.382-.995-.573-1.72-.573-.733 0-1.314.164-1.743.491-.422.32-.632.73-.632 1.229 0 .437.234.834.702 1.193.468.351 1.291.718 2.468 1.1 1.178.374 2.145.78 2.902 1.217 1.841 1.06 2.761 2.523 2.761 4.387 0 1.49-.562 2.66-1.685 3.51-1.123.85-2.663 1.275-4.621 1.275-1.381 0-2.632-.246-3.756-.737-1.115-.5-1.957-1.178-2.527-2.036-.561-.866-.842-1.86-.842-2.983h4.118c0 .912.234 1.587.702 2.024.476.429 1.244.643 2.305.643.679 0 1.213-.144 1.603-.433.398-.296.596-.71.596-1.24zM152.224 49h-4.095V31.965h4.095V49zm13.056-3.182h-5.628L158.67 49h-4.388l6.248-17.035h3.861L170.685 49h-4.411l-.994-3.182zm-4.645-3.17h3.662l-1.837-5.91-1.825 5.91z" fill="#fff"/><defs><clipPath id="clip0_12_352"><path fill="#fff" transform="translate(.014)" d="M0 0h49.026v49H0z"/></clipPath></defs></svg>
